packages/sources/icons/src/vitamix/chrome-fill.svg

<svg width="16" height="16" viewBox="0 0 16 16" fill="none" xmlns="http://www.w3.org/2000/svg">
<path fill-rule="evenodd" clip-rule="evenodd" d="M8.00005 1.33332C6.1321 1.33119 4.3494 2.11488 3.08805 3.49265L4.93405 6.68998C5.45883 5.46256 6.66515 4.66648 8.00005 4.66665H13.7747C12.584 2.60321 10.3824 1.33235 8.00005 1.33332ZM1.33333 7.99999C1.33333 11.1847 3.56666 13.8473 6.55133 14.5087H6.55199L8.39866 11.31C7.05003 11.4728 5.73757 10.8007 5.08133 9.61132L2.22599 4.66532C1.65799 5.64666 1.33333 6.78532 1.33333 7.99999ZM10.858 9.71665L7.99999 14.6667C11.682 14.6667 14.6667 11.682 14.6667 7.99999C14.6667 7.30332 14.56 6.63132 14.3613 5.99999H10.6667C11.1004 6.57647 11.3344 7.27858 11.3333 7.99999C11.3343 8.60484 11.1699 9.19845 10.858 9.71665ZM9.71463 9.02998C9.35014 9.63761 8.69126 10.0069 7.98272 10.0008C7.27418 9.99459 6.62183 9.61386 6.26797 8.99998L6.24864 8.96665C5.78207 8.12117 5.98625 7.06307 6.73389 6.45189C7.48154 5.84071 8.55911 5.85102 9.29492 6.4764C10.0307 7.10177 10.2146 8.16359 9.73197 8.99998L9.71463 9.02998Z" fill="#001018"/>
</svg>

<svg width="16" height="16" fill="none" xmlns="http://www.w3.org/2000/svg"><path fill-rule="evenodd" clip-rule="evenodd" d="M8 1.333a6.65 6.65 0 0 0-4.912 2.16L4.934 6.69A3.334 3.334 0 0 1 8 4.667h5.775A6.664 6.664 0 0 0 8 1.333zM1.333 8a6.67 6.67 0 0 0 5.218 6.509h.001l1.847-3.199A3.333 3.333 0 0 1 5.08 9.611L2.226 4.665A6.635 6.635 0 0 0 1.333 8zm9.525 1.717L8 14.667A6.667 6.667 0 0 0 14.361 6h-3.694c.433.576.667 1.279.666 2a3.318 3.318 0 0 1-.475 1.717zM9.715 9.03A2 2 0 0 1 6.268 9l-.02-.033A2 2 0 1 1 9.733 9l-.017.03z" fill="#001018"/></svg>
